icons/ganache-light.svg

<svg width="256" height="256" viewBox="0 0 256 256" fill="none" xmlns="http://www.w3.org/2000/svg">
<path d="M196 0H60C26.8629 0 0 26.8629 0 60V196C0 229.137 26.8629 256 60 256H196C229.137 256 256 229.137 256 196V60C256 26.8629 229.137 0 196 0Z" fill="#F4F2ED"/>
<path d="M198.42 181.309C200.65 181.309 201.42 180.789 202.48 178.979C203.54 177.169 203.03 174.229 202.99 173.429C202.89 171.669 202.3 169.709 202.22 168.729C202.22 168.129 202.22 164.299 202.31 162.729C203.65 137.889 214.31 131.979 217.39 131.309C219.354 130.73 221.461 130.872 223.33 131.709V93.7087V93.1687V83.0887C223.33 77.5987 219.43 70.8487 214.67 68.0887L136.81 23.0887C132.01 20.3087 124.18 20.3087 119.46 23.0587L41.6801 67.9987C36.9301 70.7487 33.0301 77.4987 33.0401 82.9987V92.8187C33.0348 92.8753 33.0348 92.9322 33.0401 92.9887V107.329C33.4901 107.579 33.9401 107.839 34.3901 108.119C35.9001 109.119 37.3901 109.669 38.9101 110.719C43.2414 113.358 47.2661 116.471 50.9101 119.999C51.6201 120.679 53.9901 123.659 54.5501 124.359C56.2713 126.731 58.206 128.94 60.3301 130.959C61.5036 132.029 62.7953 132.961 64.1801 133.739C66.4701 134.929 70.2501 134.659 72.1801 133.809C87.0001 127.389 96.3001 130.609 100.59 133.189C111.2 139.559 114.74 148.469 115.87 159.289C116.018 160.69 116.065 162.101 116.01 163.509C116.01 166.079 115.92 170.209 118.63 170.899C122.52 171.899 123.46 167.739 124.04 164.979C125.35 158.729 133.67 154.629 139.76 157.779C143.96 159.949 145.68 161.179 149.83 159.349C155.02 157.059 157.7 151.229 159.51 148.129C161.298 145.11 163.887 142.646 166.99 141.009C175.09 135.959 195.45 137.269 196.19 159.709C196.19 160.929 196.19 164.049 196.19 165.949C196.19 168.089 196.26 170.179 196.12 172.389C196.03 173.859 195.77 175.389 195.63 176.899C195.59 176.899 194.83 181.289 198.42 181.309Z" fill="#E4A663"/>
<path d="M223.31 131.719C222.76 131.549 221.16 130.499 217.39 131.319C214.3 131.989 203.65 137.899 202.31 162.739C202.23 164.269 202.18 168.099 202.22 168.739C202.3 169.739 202.89 171.679 202.99 173.439C202.99 174.239 203.6 177.139 202.48 178.989C201.36 180.839 200.65 181.329 198.42 181.319C194.83 181.319 195.59 176.909 195.59 176.909C195.73 175.419 195.99 173.909 196.08 172.399C196.22 170.189 196.15 168.099 196.15 165.959C196.15 164.059 196.15 160.959 196.15 159.719C195.41 137.279 175.05 135.969 166.95 141.019C163.847 142.656 161.258 145.12 159.47 148.139C157.66 151.239 154.98 157.069 149.79 159.359C145.64 161.189 143.92 159.959 139.72 157.789C133.63 154.639 125.31 158.739 124 164.989C123.42 167.749 122.48 171.899 118.59 170.909C115.88 170.219 115.97 166.089 115.97 163.519C116.025 162.111 115.978 160.7 115.83 159.299C114.7 148.479 111.16 139.569 100.55 133.199C96.26 130.619 86.96 127.399 72.14 133.819C70.14 134.669 66.4 134.939 64.14 133.749C62.7552 132.972 61.4635 132.039 60.29 130.969C58.1659 128.95 56.2312 126.741 54.51 124.369C53.95 123.669 51.58 120.689 50.87 120.009C47.226 116.481 43.2013 113.368 38.87 110.729C37.35 109.729 35.87 109.089 34.35 108.129C33.9 107.849 33.45 107.589 33 107.339V172.909C33 178.409 36.9 185.159 41.66 187.909L119.52 232.909C124.28 235.669 132.07 235.669 136.83 232.909L214.7 187.969C219.46 185.219 223.35 178.469 223.34 172.969L223.31 131.719Z" fill="#5E464D"/>
<path d="M138.06 120.699C132.68 123.809 123.87 123.809 118.49 120.699L38.8701 78.6987C39.7701 79.5887 119.61 125.969 119.61 125.969C124.37 128.729 132.16 128.729 136.92 125.969C136.92 125.969 216.65 79.7287 217.55 78.8387L138.06 120.699Z" fill="white"/>
<path d="M118.36 29.0486C123.75 25.9686 132.55 25.9686 137.94 29.0586L147.59 33.0586C146.69 32.1686 136.81 25.7686 136.81 25.7686C132.05 23.0186 124.27 23.0086 119.51 25.7686C119.51 25.7686 103.73 35.0386 102.84 35.9186L118.36 29.0486Z" fill="white"/>
</svg>

<svg xmlns="http://www.w3.org/2000/svg" width="256" height="256" fill="none"><path fill="#F4F2ED" d="M196 0H60C26.863 0 0 26.863 0 60v136c0 33.137 26.863 60 60 60h136c33.137 0 60-26.863 60-60V60c0-33.137-26.863-60-60-60"/><path fill="#E4A663" d="M198.42 181.309c2.23 0 3-.52 4.06-2.33s.55-4.75.51-5.55c-.1-1.76-.69-3.72-.77-4.7 0-.6 0-4.43.09-6 1.34-24.84 12-30.75 15.08-31.42a8.6 8.6 0 0 1 5.94.4v-48.62c0-5.49-3.9-12.24-8.66-15l-77.86-45c-4.8-2.78-12.63-2.78-17.35-.03l-77.78 44.94c-4.75 2.75-8.65 9.5-8.64 15v9.82a1 1 0 0 0 0 .17v14.34c.45.25.9.51 1.35.79 1.51 1 3 1.55 4.52 2.6a68.5 68.5 0 0 1 12 9.28c.71.68 3.08 3.66 3.64 4.36a48 48 0 0 0 5.78 6.6 21 21 0 0 0 3.85 2.78c2.29 1.19 6.07.92 8 .07 14.82-6.42 24.12-3.2 28.41-.62 10.61 6.37 14.15 15.28 15.28 26.1.148 1.401.195 2.812.14 4.22 0 2.57-.09 6.7 2.62 7.39 3.89 1 4.83-3.16 5.41-5.92 1.31-6.25 9.63-10.35 15.72-7.2 4.2 2.17 5.92 3.4 10.07 1.57 5.19-2.29 7.87-8.12 9.68-11.22a19 19 0 0 1 7.48-7.12c8.1-5.05 28.46-3.74 29.2 18.7v6.24c0 2.14.07 4.23-.07 6.44-.09 1.47-.35 3-.49 4.51-.04 0-.8 4.39 2.79 4.41"/><path fill="#5E464D" d="M223.31 131.719c-.55-.17-2.15-1.22-5.92-.4-3.09.67-13.74 6.58-15.08 31.42-.08 1.53-.13 5.36-.09 6 .08 1 .67 2.94.77 4.7 0 .8.61 3.7-.51 5.55s-1.83 2.34-4.06 2.33c-3.59 0-2.83-4.41-2.83-4.41.14-1.49.4-3 .49-4.51.14-2.21.07-4.3.07-6.44v-6.24c-.74-22.44-21.1-23.75-29.2-18.7a19 19 0 0 0-7.48 7.12c-1.81 3.1-4.49 8.93-9.68 11.22-4.15 1.83-5.87.6-10.07-1.57-6.09-3.15-14.41.95-15.72 7.2-.58 2.76-1.52 6.91-5.41 5.92-2.71-.69-2.62-4.82-2.62-7.39a29 29 0 0 0-.14-4.22c-1.13-10.82-4.67-19.73-15.28-26.1-4.29-2.58-13.59-5.8-28.41.62-2 .85-5.74 1.12-8-.07a21 21 0 0 1-3.85-2.78 48 48 0 0 1-5.78-6.6c-.56-.7-2.93-3.68-3.64-4.36a68.5 68.5 0 0 0-12-9.28c-1.52-1-3-1.64-4.52-2.6-.45-.28-.9-.54-1.35-.79v65.57c0 5.5 3.9 12.25 8.66 15l77.86 45c4.76 2.76 12.55 2.76 17.31 0l77.87-44.94c4.76-2.75 8.65-9.5 8.64-15z"/><path fill="#fff" d="M138.06 120.699c-5.38 3.11-14.19 3.11-19.57 0l-79.62-42c.9.89 80.74 47.27 80.74 47.27 4.76 2.76 12.55 2.76 17.31 0 0 0 79.73-46.24 80.63-47.13zm-19.7-91.65c5.39-3.08 14.19-3.08 19.58.01l9.65 4c-.9-.89-10.78-7.29-10.78-7.29-4.76-2.75-12.54-2.76-17.3 0 0 0-15.78 9.27-16.67 10.15z"/></svg>
